X:650
T: ES SUNGEN DREI ENGEL
N: E2031C
O: Europa, Mitteleuropa, Deutschland, Altmark
R: geistlich, Wallfahrts - Lied
M: 3/4
L: 1/8
K: F
FA | c3dcB | A2G2
F2 | c3BA2 | G4
FG | A2AcG2 | F2C2
FA | c3AG2 | F4

@@@ Tune index: 5334
